X:1
T:Title
%%score { 1 | 2 }
L:1/8
Q:1/4=100
M:4/4
K:C
V:1 treble nm="Grand Piano"
V:2 bass 
V:1
 G2 C>D E2 A>G | [Ec]4 [EG]2 z2 | [Ge]2 [FA]>[Fd] c2 [DB]2 | [Ec]6 z2 | E2 c>B A2 E>E | A4 c2 z2 | %6
w: Frank~M.~Davis * * * * *||||||
 [Gd]2 [GB]>[Gd] [^Fd]2 [FA]2 | G6 z2 | G2 f>e e>d d2 | G2 e>d [Fd]>[Ec] [Ec]2 | G>G G2 A>A A2 | %11
w: |||||
 B>B B>B c2 [Ad]>[Ad] | [^Ge]6 z2 | G2 f>e e>d d2 | G2 e>d [Fd]>[Ec] [Ec]2 | G>G G2 A>A A2 | %16
w: |||||
 B>B B>f e2 G>d | [Ec]6 z2 |] %18
w: ||
V:2
 G,2 C,>D, E,2 A,>G, | [C,G,]4 [C,C]2 z2 | [C,C]2 [F,C]>[D,D] [G,E]2 [G,,G,]2 | [C,G,]6 z2 | %4
 E,2 C>B, A,2 E,>E, | [A,CE]4 [A,E]2 z2 | [D,B,]2 [D,D]>[D,B,] [D,D]2 [D,C]2 | [G,B,]6 z2 | %8
 [G,B,]2 [G,DG]>[G,CG] [G,CG]>[G,B,F] [G,B,F]2 | %9
 [G,B,F]2 [G,CG]>[G,B,F][K:bass] [C,G,]>[C,G,] [C,G,]2 | %10
 [E,G,C]>[E,G,C] [E,G,C]2[K:treble] [F,CF]>[F,CF] [F,CF]2 | %11
 [G,F]>[G,F] [G,F]>[G,F][K:bass] [A,CE]2 [F,A,]>[F,A,] | [E,B,]6 z2 | %13
 [G,B,]2 [G,DG]>[G,CG] [G,CG]>[G,B,F] [G,B,F]2 | %14
 [G,B,F]2 [G,CG]>[G,B,F][K:bass] [C,G,]>[C,G,] [C,G,]2 | %15
 [E,G,C]>[E,G,C] [E,G,C]2[K:treble] [F,CF]>[F,CF] [F,CF]2 | %16
 [G,F]>[G,F] [G,F]>[G,DF] [G,CF]2 [G,B,F]>[G,B,F] | [C,C]6 z2 |] %18

